img/social/viber70.svg

<svg width="70" height="70" viewBox="0 0 70 70" fill="none" xmlns="http://www.w3.org/2000/svg">
<path d="M35 70C54.33 70 70 54.33 70 35C70 15.67 54.33 0 35 0C15.67 0 0 15.67 0 35C0 54.33 15.67 70 35 70Z" fill="#7460F3"/>
<path d="M48.5527 21.0871C47.6285 20.2459 43.9199 17.5612 35.6731 17.5266C35.6731 17.5266 25.9334 16.939 21.1939 21.283C18.5517 23.9101 17.6156 27.7586 17.5208 32.5289C17.426 37.2992 17.2957 46.2406 25.9571 48.6719V52.3706C25.9571 52.3706 25.8979 53.8685 26.8932 54.1796C28.0899 54.5483 28.8008 53.4076 29.9383 52.1862C30.5663 51.5064 31.4313 50.5155 32.083 49.7665C38.0073 50.262 42.5691 49.1212 43.0786 48.9599C44.2753 48.5682 51.041 47.704 52.1429 38.7625C53.2804 29.5446 51.5978 23.7142 48.5527 21.0871ZM38.6827 32.8861C38.5761 32.8861 38.4694 32.84 38.3983 32.7709C38.3272 32.7017 38.2799 32.6095 38.268 32.4943C38.2562 32.1371 38.1969 31.803 38.0903 31.538C37.9955 31.2614 37.8651 31.0425 37.6874 30.8581C37.5215 30.6853 37.3083 30.547 37.0476 30.4433C36.7751 30.3511 36.467 30.282 36.1234 30.2705C36.0049 30.259 35.9101 30.2129 35.839 30.1322C35.7679 30.0516 35.7324 29.9594 35.7324 29.8442C35.7442 29.7289 35.7916 29.6368 35.8627 29.5676C35.9456 29.4985 36.0523 29.4639 36.1589 29.4639C36.6092 29.487 37.012 29.5676 37.3675 29.7059C37.723 29.8442 38.031 30.0516 38.2799 30.3051C38.5287 30.5585 38.7183 30.8697 38.8604 31.2384C38.9908 31.5956 39.0619 31.9989 39.0856 32.4598C39.0974 32.575 39.05 32.6672 38.9908 32.7478C38.9197 32.8285 38.813 32.8746 38.7064 32.8861H38.6827ZM43.2682 39.2119C43.2682 39.2119 42.1544 38.2901 41.6212 37.8984C41.1117 37.5181 40.2941 37.0227 39.8439 36.7692C39.0263 36.3083 38.1969 36.5963 37.8414 37.0457L37.1305 37.9329C36.7632 38.3938 36.2063 38.3132 36.0523 38.2786C34.9977 38.0251 33.8721 37.3798 32.7228 36.2967C31.5616 35.2136 30.8625 34.0729 30.6137 32.8861L30.59 32.8054C30.5189 32.3215 30.6019 32.091 30.8151 31.7569L30.8507 31.7338C31.3365 31.296 32.2251 30.766 32.3436 30.259C32.6991 29.3833 31.1706 27.5512 30.9573 27.217C30.9573 27.217 29.8435 25.7882 29.4525 25.5232C29.026 25.1776 28.3624 24.9817 27.6989 25.3734L27.6634 25.3965C25.7439 26.664 25.0566 27.3784 25.2462 28.4615L25.341 28.8993C26.3126 31.8721 28.1847 35.0408 30.981 37.8638C33.7418 40.6522 36.7395 42.323 39.678 43.4868C40.4482 43.7287 41.242 43.5213 42.0596 42.8415L42.0714 42.83C42.6876 42.2654 43.1852 41.6547 43.5525 41.0094L43.5644 40.9979C43.9199 40.3066 43.8014 39.6613 43.2682 39.2119ZM43.0904 34.4762C42.9838 34.4762 42.8772 34.4301 42.8061 34.361C42.735 34.2918 42.6876 34.1881 42.6876 34.0844C42.6757 33.4392 42.6283 32.817 42.5217 32.2408C42.4269 31.6647 42.2847 31.1231 42.0951 30.6162C41.9056 30.1207 41.6567 29.6598 41.3842 29.2219C41.0999 28.7956 40.7681 28.3923 40.3889 28.0236C40.0098 27.6549 39.6188 27.3438 39.1922 27.0672C38.7656 26.7907 38.3154 26.5603 37.8533 26.3759C37.3793 26.1915 36.8817 26.0417 36.3722 25.9496C35.8509 25.8574 35.3058 25.8113 34.7489 25.7998C34.6304 25.7998 34.5238 25.7537 34.4527 25.6845C34.3816 25.6039 34.3342 25.5117 34.3342 25.3965C34.3342 25.2813 34.3816 25.1891 34.4646 25.1199C34.5356 25.0393 34.6423 24.9932 34.7489 24.9932C35.9812 25.0047 37.1187 25.2121 38.1614 25.6269C39.1922 26.0417 40.1283 26.6409 40.9695 27.4475C41.3842 27.8623 41.7515 28.3001 42.0714 28.7841C42.3795 29.268 42.652 29.7865 42.8535 30.3396C43.0667 30.8927 43.2208 31.4803 43.3274 32.1026C43.4341 32.7248 43.4933 33.3816 43.5051 34.0729C43.5051 34.1766 43.4578 34.2803 43.3867 34.3494C43.3156 34.4301 43.2089 34.4762 43.1023 34.4762H43.0904ZM40.8629 33.612H40.851C40.7325 33.612 40.6378 33.5544 40.5667 33.4853C40.4956 33.4046 40.4482 33.3124 40.4482 33.1972C40.4719 32.4828 40.3652 31.8145 40.152 31.2153C39.9387 30.6162 39.6188 30.0746 39.1804 29.6022C38.9552 29.3602 38.7183 29.1528 38.4576 28.9684C38.1969 28.7841 37.9125 28.6228 37.6045 28.4845C37.2964 28.3578 36.9646 28.2425 36.6092 28.1619C36.2537 28.0812 35.8627 28.0236 35.4717 28.0006C35.3532 27.989 35.2584 27.9314 35.1873 27.8508C35.1162 27.7816 35.0807 27.6895 35.0925 27.5858V27.5627C35.0925 27.459 35.1518 27.3553 35.2229 27.2977C35.3058 27.2286 35.4006 27.1825 35.5072 27.194H35.5309C36.4314 27.2631 37.2372 27.4475 37.9481 27.7586C38.659 28.0697 39.2751 28.5076 39.7846 29.0606C40.2941 29.6137 40.6733 30.2474 40.9221 30.9388C41.1709 31.6301 41.2894 32.4021 41.2657 33.2202C41.2657 33.3239 41.2183 33.4276 41.1472 33.4968C41.0762 33.5659 40.9695 33.612 40.8629 33.612ZM49.5717 38.0942C48.6475 45.5723 43.1497 46.0332 42.1425 46.3558C41.716 46.4941 37.7111 47.485 32.6872 47.1624L27.225 53.0389V46.2637L27.1776 46.2521C19.855 44.2357 20.1039 36.6309 20.1868 32.6441C20.2697 28.6689 21.0162 25.3965 23.2556 23.2072C27.2724 19.5776 35.5428 20.1192 35.5428 20.1192C42.5217 20.1538 45.8749 22.2509 46.6451 22.9422C49.2162 25.143 50.5315 30.3972 49.5717 38.0942Z" fill="white"/>
</svg>

<svg width="70" height="70" fill="none" xmlns="http://www.w3.org/2000/svg"><path d="M35 70c19.33 0 35-15.67 35-35S54.33 0 35 0 0 15.67 0 35s15.67 35 35 35Z" fill="#7460F3"/><path d="M48.553 21.087c-.924-.841-4.633-3.526-12.88-3.56 0 0-9.74-.588-14.48 3.756-2.641 2.627-3.577 6.476-3.672 11.246-.095 4.77-.225 13.712 8.436 16.143v3.699s-.06 1.497.936 1.809c1.197.368 1.908-.772 3.045-1.994.628-.68 1.493-1.67 2.145-2.42 5.924.496 10.486-.645 10.996-.806 1.196-.392 7.962-1.256 9.064-10.197 1.137-9.218-.545-15.049-3.59-17.676Zm-9.87 11.8a.42.42 0 0 1-.415-.393 2.877 2.877 0 0 0-.178-.956 1.78 1.78 0 0 0-.403-.68 1.787 1.787 0 0 0-.64-.415 3.2 3.2 0 0 0-.924-.173.417.417 0 0 1-.39-.426.438.438 0 0 1 .13-.276.463.463 0 0 1 .296-.104c.45.023.853.104 1.209.242.355.138.663.346.912.6.249.252.438.564.58.932.13.358.202.76.226 1.222a.406.406 0 0 1-.095.288.443.443 0 0 1-.285.138h-.023Zm4.585 6.325s-1.114-.922-1.647-1.314c-.51-.38-1.327-.875-1.777-1.129-.818-.46-1.647-.173-2.003.277l-.71.887c-.368.46-.925.38-1.079.346-1.054-.254-2.18-.9-3.33-1.982-1.16-1.083-1.86-2.224-2.108-3.41l-.024-.082c-.071-.483.012-.714.225-1.048l.036-.023c.486-.438 1.374-.968 1.493-1.475.355-.876-1.173-2.708-1.387-3.042 0 0-1.114-1.429-1.505-1.694-.426-.345-1.09-.541-1.753-.15l-.036.023c-1.92 1.268-2.606 1.982-2.417 3.066l.095.437c.972 2.973 2.844 6.142 5.64 8.965 2.76 2.788 5.758 4.459 8.697 5.623.77.242 1.564.034 2.382-.645l.011-.012a7.564 7.564 0 0 0 1.482-1.82l.011-.012c.356-.691.237-1.337-.296-1.786Zm-.178-4.736a.397.397 0 0 1-.403-.392 11.376 11.376 0 0 0-.165-1.843 8.624 8.624 0 0 0-.427-1.625 8.175 8.175 0 0 0-.71-1.394 7.386 7.386 0 0 0-.996-1.198 7.718 7.718 0 0 0-4.017-2.074 10.606 10.606 0 0 0-1.623-.15.427.427 0 0 1-.296-.116.424.424 0 0 1-.119-.288c0-.115.048-.207.13-.276a.383.383 0 0 1 .285-.127c1.232.012 2.37.22 3.412.634a8.724 8.724 0 0 1 2.808 1.82c.415.415.782.853 1.102 1.337.309.484.581 1.003.782 1.556.214.553.368 1.14.474 1.763.107.622.166 1.279.178 1.97a.397.397 0 0 1-.118.276.383.383 0 0 1-.285.127h-.012Zm-2.227-.864h-.012a.407.407 0 0 1-.284-.127.425.425 0 0 1-.119-.288 5.369 5.369 0 0 0-.296-1.982 4.626 4.626 0 0 0-1.694-2.247 5.073 5.073 0 0 0-.853-.483 6.252 6.252 0 0 0-.996-.323A7.093 7.093 0 0 0 35.472 28a.43.43 0 0 1-.285-.15.311.311 0 0 1-.094-.265v-.023c0-.104.059-.208.13-.265.083-.07.178-.115.284-.104h.024c.9.07 1.706.254 2.417.565.711.31 1.327.749 1.837 1.302a5.51 5.51 0 0 1 1.137 1.878c.249.691.367 1.463.344 2.281a.397.397 0 0 1-.403.392Zm8.709 4.482c-.925 7.478-6.422 7.94-7.43 8.262-.426.138-4.43 1.129-9.455.806l-5.462 5.877v-6.775l-.047-.012c-7.323-2.016-7.074-9.621-6.991-13.608.083-3.975.83-7.247 3.069-9.437 4.016-3.63 12.287-3.088 12.287-3.088 6.979.035 10.332 2.132 11.102 2.823 2.571 2.201 3.886 7.455 2.927 15.152Z" fill="#fff"/></svg>
